X:45
T:Trip to the Ferry. 2voices Dix.45, A
M:6/8
L:1/8
Q:1/4=110
S:Anon. MS dated 1811, from Dixon collection, Holton le Moor, Lincs.
R:jig
O:England;Lincolnshire;Holton le Moor
Z:vmp.R.Greig 2012 <http://www.village-music-project.org.uk>
K:G
[V:1]|:d|gdd “tr”B2A|GDG “tr”G2A|BGB BdB|cAA “tr”A2d|!
[V:2]|:z|G,,2B,, G,2D,|G,2B,G,2D,|G,2B,G,2z|G,2B,D2B,,|!
[V:1][gG]dd “tr”B2A|GDG”tr”G2A|Bcd cBA|BGGD2:|!
[V:2]G,2B,D2D,|G,2B,G,2D,|G,2B,,A,,2C,|G,D,B,,G,,2:|!
[V:1]|:d|gdg “tr”g2a|bgb “tr”a3″dot added”|gag fed|fdd [d2B2]d|!
[V:2]|:z|G,2B,G,2D,|G,2B,[D3D,3]|G,2B,G,2D,|DA,F,D,2z|!
[V:1]gdd “tr”B2A|GDG[G2D2]A|Bcd cBA|BGG [G2D2B,2]:|!
[V:2]G,2B,D2D,|G,2B,G,2D,|G,2B,,A,,2C,|G,D,B,,G,,2:|

